X:83
T:One More Dance and Then... JJo8.083
B:J.Johnson Choice Collection Vol 8 1758
Z:vmp.Simon Wilson 2013 www.village-music-project.org.uk
M:C|
L:1/8
Q:1/4=100
K:A
|:c/d/|efeca2cd|e>fec dB2c/d/|e>fec agfe|fedcB3:|
|:B/c/|dBgd bdcB|cAec acBA|cAGF EDCB,|A,dcB{B}A3:|
